X:1
T:Galizische Kreuzpolka
C:traditionell
R:volkstanz
%%textfont Helvetica-Narrow 10pt
%%begintext align
S:noten-material (lose kopien) von Elisabeth und Chistoph Huspeka
%%endtext
F:http://simonwascher.info/
Z:abc transcription Simon Wascher
M:2/4
L:1/8
K:G
D |\
D2 GA | B3G | BB AG | GF F2 |
D2 FA | c3A | cc BA |1 AG G2 :|\
                    [2 G3 ||
|: B |\
GB GB | BA c2 | FA FA | AG B2 |
GB GB | BA c2 | BB AD | G3 :|
%%wordsfont Times-Italic 11pt
W:aus Simon Waschers TradArchiv
